FINK
CUT[GUTE NACHT MEINE WALLFAHRT IST VOLLBRACHT]
REG[Europa, Mitteleuropa, Deutschland]
KEY[F1066  16  E 4/4]
MEL[  5___.-7__  1___0__
    1_.1  4__.6_+1__7_6_  5___0__
    5_.5  5__.5_5__6_7_  +1_.55__0__
    5_.5  5__.7_+2_7_5_4_  4_3_3__0___
    +1__.3_1_.17b_.7b  6___0___
    5___.4__  3___0___  5___.-7__  1___0___ //] >>
FCT[Trost - Lied]
